X: 109
T:Glendaruel Highlanders
% Nottingham Music Database
Y:AABB
S:Kevin Briggs, via EF
M:6/8
K:A
P:A
|:e/2c/2|"A"A3/2A/2A/2A/2 ABc|"A"ece "D"f2e|"A"cBA "D"faf|"Bm"e3 "E7"efa|
"A"A3/2A/2A/2A/2 ABc|"A"ece "D"f2e|"F#m"fac "E7"edB|"A"A3 -A2:|
P:B
|:e/2d/2|"A"c2A "E7"ceB|"A"c2A Ace|"D"f2e faf|"E7"e3 efa|"A"c2A "E7"ceB|
"A"c2A Ace|"Bm"fec "E7"edB|"A"A3 -"E7"Aed|"A"c2A "E7"ceB|"A"c2A Ace|
"D"f2e faf|"E7"e3 efg|"A"acc cde|"Bm"fBB B2e|"F#m"fac "E7"edB|"A"A3 -A2:|


